!!!COM:	Ockeghem, Johannes
!!!CDT:	~1425-1497/02/06
!!!OPR:	Missa Prolationum
!!!ONM:	1
!!!OTL:	Kyrie
!!!AGN:	Mass; Kyrie
!!!SCT:	Ock1011a
!!!SCA:	Ock1011a
!!!voices:	4
!!!voices-OPR:	4
**kern	**text	**kern	**text	**kern	**text	**kern	**text
*staff4	*staff4	*staff3	*staff3	*staff2	*staff2	*staff1	*staff1
*Ivox	*	*Ivox	*	*Ivox	*	*Ivox	*
*I"Contra2	*	*I"Contra1	*	*I"Discantus2	*	*I"Discantus1	*
*I'C2	*	*I'C1	*	*I'D2	*	*I'D1	*
*>[A,B]	*>[A,B]	*>[A,B]	*>[A,B]	*>[A,B]	*>[A,B]	*>[A,B]	*>[A,B]
*>A	*>A	*>A	*>A	*>A	*>A	*>A	*>A
*clefF4	*	*clefGv2	*	*clefG2	*	*clefG2	*
*k[b-]	*	*k[b-]	*	*k[]	*	*k[]	*
*M3/1	*	*M3/1	*	*M3/1	*	*M3/1	*
*met(O)	*	*met(O)	*	*met(O)	*	*met(O)	*
=1-	=1-	=1-	=1-	=1-	=1-	=1-	=1-
!LO:TX:X=-40:Z=8:t=Comes	!	!LO:TX:X=-40:Z=8:t=Dux	!	!LO:TX:X=-40:Z=8:t=Comes	!	!LO:TX:X=-40:Z=8:t=Dux	!
[0.F	Ky-	0.F	Ky-	0.f	Ky-	0f	Ky-
.	.	.	.	.	.	[1c	-ri-
=2	=2	=2	=2	=2	=2	=2	=2
1.F]	.	1.A	.	0.c	-ri-	1c]	.
.	.	.	.	.	.	0f	-e
1.A	.	1.F	.	.	.	.	.
=3	=3	=3	=3	=3	=3	=3	=3
0.F	.	0.c	.	0.f	-e	0a	.
.	.	.	.	.	.	1r	.
=4	=4	=4	=4	=4	=4	=4	=4
[0.c	.	1.A	-ri-	0.a	.	1e	e-
.	.	.	.	.	.	0f	.
.	.	1.F	.	.	.	.	.
=5	=5	=5	=5	=5	=5	=5	=5
1.c]	.	0C	-e	1r	.	1e	-lei-
.	.	.	.	0e	e-	1c	.
1.A	-ri-	.	.	.	.	.	.
.	.	[1c	e-	.	.	1c	-son.
=6	=6	=6	=6	=6	=6	=6	=6
0.F	.	1c]	.	0.f	.	1r	.
.	.	0A	.	.	.	0f	Ky-
=7	=7	=7	=7	=7	=7	=7	=7
0C	-e	0G	.	1e	-lei-	1.g	.
.	.	.	.	1c	.	.	.
.	.	.	.	.	.	2e/	.
[1c	e-	1A	.	1c	-son.	1e	-ri-
=8	=8	=8	=8	=8	=8	=8	=8
1c]	.	1F	.	1r	.	1.f	-e
0A	.	0c	.	0f	Ky-	.	.
.	.	.	.	.	.	2.a/	e-
.	.	.	.	.	.	4b\	.
.	.	.	.	.	.	2cc\	.
=9	=9	=9	=9	=9	=9	=9	=9
0G	.	0d	-lei-	1.g	.	2b\	.
.	.	.	.	.	.	1b	-lei-
.	.	.	.	2e/	.	4a/	.
.	.	.	.	.	.	4b\	.
1A	.	[1c	-son.	1e	-ri-	1cc	-son.
=10	=10	=10	=10	=10	=10	=10	=10
1F	.	1c]	.	1.f	-e	1r	.
0c	.	1F	Ky-	.	.	1a	Ky-
.	.	.	.	2.a/	e-	.	.
.	.	1A	.	.	.	1f	.
.	.	.	.	4b\	.	.	.
.	.	.	.	2cc\	.	.	.
=11	=11	=11	=11	=11	=11	=11	=11
0d	-lei-	2.G/	.	2b\	.	1g	.
.	.	.	.	1b	-lei-	.	.
.	.	4F/	.	.	.	.	.
.	.	1D	.	.	.	1f	.
.	.	.	.	4a/	.	.	.
.	.	.	.	4b\	.	.	.
[1c	-son.	[1A	.	1cc	-son.	1e	-ri-
=12	=12	=12	=12	=12	=12	=12	=12
1c]	.	2A/]	.	1r	.	0c	-e
.	.	2B-\	-ri-	.	.	.	.
1F	Ky-	1c	-e	1a	Ky-	.	.
1A	.	1A	.	1f	.	1cc	e-
=13	=13	=13	=13	=13	=13	=13	=13
2.G\	.	2r	.	1g	.	2b-i\	.
.	.	1B-	e-	.	.	1dd	.
4F\	.	.	.	.	.	.	.
1D	.	.	.	1f	.	.	.
.	.	2A/	.	.	.	4cc\	.
.	.	.	.	.	.	4b-i\	.
[1A	.	1c	-lei-	1e	-ri-	[1a	.
=14	=14	=14	=14	=14	=14	=14	=14
2A\]	.	0F	-son.	0c	-e	0a]	.
2B-\	-ri-	.	.	.	.	.	.
1c	-e	.	.	.	.	.	.
1A	.	1F	Ky-	1cc	e-	1f	.
=15	=15	=15	=15	=15	=15	=15	=15
2r	.	0BB-	.	2b-i\	.	1.f	-lei-
1B-	e-	.	.	1dd	.	.	.
2A\	.	.	.	4cc\	.	4e/	.
.	.	.	.	4b-i\	.	4d/	.
1c	-lei-	1F	-ri-	[1a	.	1c	-son,
=16	=16	=16	=16	=16	=16	=16	=16
0F	-son,	2F/	-e	0a]	.	2r	.
.	.	1A	e-	.	.	1f	e-
.	.	2B-\	.	.	.	2g/	.
1F	e-	1c	.	1f	.	1a	.
=17	=17	=17	=17	=17	=17	=17	=17
0BB-	-lei-	1.d	-lei-	1.f	-lei-	1.b-i	-lei-
.	.	2B-\	.	4e/	.	2g/	.
.	.	.	.	4d/	.	.	.
1F	.	1c	.	1c	.	1a	.
=18	=18	=18	=18	=18	=18	=18	=18
0.Fl	-son.	0.cl	-son.	0.fl	-son.	0.al	-son.
!!LO:LB:i:g=z
=19||	=19||	=19||	=19||	=19||	=19||	=19||	=19||
*M2/1	*	*M2/1	*	*M2/1	*	*M2/1	*
*met(C|)	*	*met(C|)	*	*met(C|)	*	*met(C|)	*
!!section: Christe
!!!OMD: Christe
!LO:TX:X=-45:Z=8:t=Dux	!	!LO:TX:X=-40:Z=8:t=Comes	!	!LO:TX:X=-40:Z=8:t=Dux	!	!LO:TX:X=-40:Z=8:t=Comes	!
[0B-	Chri-	0r	.	[0f	Chri-	0r	.
=20	=20	=20	=20	=20	=20	=20	=20
0B-_	.	0r	.	1f]	.	0r	.
.	.	.	.	1d	.	.	.
=21	=21	=21	=21	=21	=21	=21	=21
0B-_	.	0r	.	1f	.	0r	.
.	.	.	.	[1g	.	.	.
=22	=22	=22	=22	=22	=22	=22	=22
0B-]	.	0r	.	2g/]	.	0r	.
.	.	.	.	4f/	.	.	.
.	.	.	.	4e/	.	.	.
.	.	.	.	1d	.	.	.
=23	=23	=23	=23	=23	=23	=23	=23
0A	.	0r	.	1c	.	0r	.
.	.	.	.	1f	.	.	.
=24	=24	=24	=24	=24	=24	=24	=24
1B-	.	0r	.	1g	.	0r	.
1G	.	.	.	1b-i	.	.	.
=25	=25	=25	=25	=25	=25	=25	=25
0F	.	0r	.	1a	.	0r	.
.	.	.	.	[1cc	.	.	.
=26	=26	=26	=26	=26	=26	=26	=26
0E	.	0r	.	2cc\]	.	0r	.
.	.	.	.	4b-i\	.	.	.
.	.	.	.	4a/	.	.	.
.	.	.	.	1g	.	.	.
=27	=27	=27	=27	=27	=27	=27	=27
1F	.	0r	.	1f	.	0r	.
1D	.	.	.	[1a	.	.	.
=28	=28	=28	=28	=28	=28	=28	=28
0C	.	0r	.	2a/]	.	0r	.
.	.	.	.	4g/	.	.	.
.	.	.	.	4f/	.	.	.
.	.	.	.	1e	.	.	.
=29	=29	=29	=29	=29	=29	=29	=29
1BB-	-ste	0r	.	1d	.	0r	.
2r	.	.	.	[1f	.	.	.
[2F\	e-	.	.	.	.	.	.
=30	=30	=30	=30	=30	=30	=30	=30
2F\]	.	0r	.	2f/]	.	0r	.
2G\	.	.	.	4e/	.	.	.
.	.	.	.	4d/	.	.	.
1A	.	.	.	1c	-ste	.	.
=31	=31	=31	=31	=31	=31	=31	=31
1.B-	.	0r	.	2r	.	0r	.
.	.	.	.	2f/	e-	.	.
.	.	.	.	2g/	.	.	.
[2c\	.	.	.	[2a/	.	.	.
=32	=32	=32	=32	=32	=32	=32	=32
2c\]	.	0r	.	2a/]	.	0r	.
2B-\	.	.	.	1b-i	.	.	.
2G\	.	.	.	.	.	.	.
2F\	.	.	.	2cc\	.	.	.
=33	=33	=33	=33	=33	=33	=33	=33
2B-\	.	0r	.	4b-i\	.	0r	.
.	.	.	.	4g/	.	.	.
2c\	.	.	.	1g	-lei-	.	.
1A	.	.	.	.	.	.	.
.	.	.	.	2f#i/	.	.	.
=34	=34	=34	=34	=34	=34	=34	=34
0G	-lei-	0r	.	0g	-son.	0r	.
=35	=35	=35	=35	=35	=35	=35	=35
0c	.	0r	.	1r	.	0r	.
.	.	.	.	[1g	Chri-	.	.
=36	=36	=36	=36	=36	=36	=36	=36
1c	-son.	0r	.	1g]	.	0r	.
1c	Chri-	.	.	1a	.	.	.
=37	=37	=37	=37	=37	=37	=37	=37
1B-	.	0r	.	0b-i	.	0r	.
1G	.	.	.	.	.	.	.
=38	=38	=38	=38	=38	=38	=38	=38
1A	.	0r	.	1a	.	0r	.
[1B-	.	.	.	1f	.	.	.
=39	=39	=39	=39	=39	=39	=39	=39
1B-]	.	0r	.	1g	.	0r	.
1A	.	.	.	[1a	.	.	.
=40	=40	=40	=40	=40	=40	=40	=40
1F	.	0r	.	1a]	.	0r	.
1G	.	.	.	1g	.	.	.
=41	=41	=41	=41	=41	=41	=41	=41
0A	.	0r	.	2e/	.	0r	.
.	.	.	.	2.f/	.	.	.
.	.	.	.	4e/	.	.	.
.	.	.	.	4d/	.	.	.
.	.	.	.	4c/	.	.	.
=42	=42	=42	=42	=42	=42	=42	=42
1G	.	0r	.	2.B/	.	0r	.
.	.	.	.	4c/	.	.	.
2F\	.	.	.	1d	-ste	.	.
[2G\	.	.	.	.	.	.	.
=43	=43	=43	=43	=43	=43	=43	=43
4G\]	.	0r	.	2B/	e-	0r	.
4F\	.	.	.	.	.	.	.
4E\	.	.	.	1c	-lei-	.	.
4D\	.	.	.	.	.	.	.
2C/	-ste	.	.	.	.	.	.
2D\	e-	.	.	4B/	.	.	.
.	.	.	.	4A/	.	.	.
=44	=44	=44	=44	=44	=44	=44	=44
2E\	-lei-	0r	.	2G/	.	0r	.
2F\	.	.	.	1c	.	.	.
1D	.	.	.	.	.	.	.
.	.	.	.	2B/	.	.	.
=45	=45	=45	=45	=45	=45	=45	=45
0C	-son.	0r	.	0c	-son.	0r	.
=46	=46	=46	=46	=46	=46	=46	=46
0r	.	[0c	Chri-	0r	.	[0g	Chri-
=47	=47	=47	=47	=47	=47	=47	=47
0r	.	0c_	.	0r	.	1g]	.
.	.	.	.	.	.	1e	.
=48	=48	=48	=48	=48	=48	=48	=48
0r	.	0c_	.	0r	.	1g	.
.	.	.	.	.	.	[1a	.
=49	=49	=49	=49	=49	=49	=49	=49
0r	.	0c]	.	0r	.	2a/]	.
.	.	.	.	.	.	4g/	.
.	.	.	.	.	.	4f/	.
.	.	.	.	.	.	1e	.
=50	=50	=50	=50	=50	=50	=50	=50
0r	.	0B-	.	0r	.	1d	.
.	.	.	.	.	.	1g	.
=51	=51	=51	=51	=51	=51	=51	=51
0r	.	1c	.	0r	.	1a	.
.	.	1A	.	.	.	1cc	.
=52	=52	=52	=52	=52	=52	=52	=52
0r	.	0G	.	0r	.	1b	.
.	.	.	.	.	.	[1dd	.
=53	=53	=53	=53	=53	=53	=53	=53
0r	.	0F	.	0r	.	2dd\]	.
.	.	.	.	.	.	4cc\	.
.	.	.	.	.	.	4b\	.
.	.	.	.	.	.	1a	.
=54	=54	=54	=54	=54	=54	=54	=54
0r	.	1G	.	0r	.	1g	.
.	.	1E	.	.	.	[1b	.
=55	=55	=55	=55	=55	=55	=55	=55
0r	.	0D	.	0r	.	2b\]	.
.	.	.	.	.	.	4a/	.
.	.	.	.	.	.	4g/	.
.	.	.	.	.	.	1f	.
=56	=56	=56	=56	=56	=56	=56	=56
0r	.	1C	-ste	0r	.	1e	.
.	.	2r	.	.	.	[1g	.
.	.	[2G/	e-	.	.	.	.
=57	=57	=57	=57	=57	=57	=57	=57
0r	.	2G/]	.	0r	.	2g/]	.
.	.	2A/	.	.	.	4f/	.
.	.	.	.	.	.	4e/	.
.	.	1B-	.	.	.	1d	-ste
=58	=58	=58	=58	=58	=58	=58	=58
0r	.	1.c	.	0r	.	2r	.
.	.	.	.	.	.	2g/	e-
.	.	.	.	.	.	2a/	.
.	.	[2d\	.	.	.	[2b\	.
=59	=59	=59	=59	=59	=59	=59	=59
0r	.	2d\]	.	0r	.	2b\]	.
.	.	2c\	.	.	.	1cc	.
.	.	2A/	.	.	.	.	.
.	.	2G/	.	.	.	2dd\	.
=60	=60	=60	=60	=60	=60	=60	=60
0r	.	2c\	.	0r	.	4cc\	.
.	.	.	.	.	.	4a/	.
.	.	2d\	.	.	.	1a	-lei-
.	.	1B-	.	.	.	.	.
.	.	.	.	.	.	2g/	.
=61	=61	=61	=61	=61	=61	=61	=61
0r	.	0A	-lei-	0r	.	0a	-son.
=62	=62	=62	=62	=62	=62	=62	=62
0r	.	0d	.	0r	.	1r	.
.	.	.	.	.	.	[1a	Chri-
=63	=63	=63	=63	=63	=63	=63	=63
0r	.	1d	-son.	0r	.	1a]	.
.	.	1d	Chri-	.	.	1b-i	.
=64	=64	=64	=64	=64	=64	=64	=64
0r	.	1c	.	0r	.	0cc	.
.	.	1A	.	.	.	.	.
=65	=65	=65	=65	=65	=65	=65	=65
0r	.	1B-	.	0r	.	1b-i	.
.	.	[1c	.	.	.	1g	.
=66	=66	=66	=66	=66	=66	=66	=66
0r	.	1c]	.	0r	.	1a	.
.	.	1B-	.	.	.	[1b-i	.
=67	=67	=67	=67	=67	=67	=67	=67
0r	.	1G	.	0r	.	1b-]	.
.	.	1A	.	.	.	1a	.
=68	=68	=68	=68	=68	=68	=68	=68
0r	.	0B-	.	0r	.	2f/	.
.	.	.	.	.	.	2.g/	.
.	.	.	.	.	.	4f/	.
.	.	.	.	.	.	4e/	.
.	.	.	.	.	.	4d/	.
=69	=69	=69	=69	=69	=69	=69	=69
0r	.	1A	.	0r	.	2.c/	.
.	.	.	.	.	.	4d/	.
.	.	2G/	.	.	.	1e	-ste
.	.	[2A/	.	.	.	.	.
=70	=70	=70	=70	=70	=70	=70	=70
0r	.	4A/]	.	0r	.	2c/	e-
.	.	4G/	.	.	.	.	.
.	.	4F/	.	.	.	1d	-lei-
.	.	4E/	.	.	.	.	.
.	.	2D/	-ste	.	.	.	.
.	.	2E/	e-	.	.	4c/	.
.	.	.	.	.	.	4B/	.
=71	=71	=71	=71	=71	=71	=71	=71
0r	.	2F/	-lei-	0r	.	2A/	.
.	.	2G/	.	.	.	1d	.
.	.	1E	.	.	.	.	.
.	.	.	.	.	.	2c#i/	.
=72	=72	=72	=72	=72	=72	=72	=72
0r	.	0Dl	-son.	0r	.	0dl	-son.
=73	=73	=73	=73	=73	=73	=73	=73
0A	Chri-	0r	.	1c	Chri-	0r	.
.	.	.	.	1f	.	.	.
=74	=74	=74	=74	=74	=74	=74	=74
1B-	.	0r	.	1g	.	0r	.
1A	.	.	.	[1a	.	.	.
=75	=75	=75	=75	=75	=75	=75	=75
0d	.	0r	.	2a/]	.	0r	.
.	.	.	.	1f	.	.	.
.	.	.	.	4e/	.	.	.
.	.	.	.	4d/	.	.	.
=76	=76	=76	=76	=76	=76	=76	=76
1.c	.	0r	.	1e	.	0r	.
.	.	.	.	2g/	.	.	.
2A\	.	.	.	2f/	.	.	.
=77	=77	=77	=77	=77	=77	=77	=77
1B-	.	0r	.	1d	.	0r	.
1A	.	.	.	1c	-ste	.	.
=78	=78	=78	=78	=78	=78	=78	=78
1F	.	0r	.	2r	.	0r	.
.	.	.	.	2f/	e-	.	.
2B-\	.	.	.	2g/	.	.	.
2c\	.	.	.	[2a/	.	.	.
=79	=79	=79	=79	=79	=79	=79	=79
1d	.	0r	.	2a/]	.	0r	.
.	.	.	.	2b-i\	.	.	.
2c\	.	.	.	2.a/	.	.	.
2A\	.	.	.	.	.	.	.
.	.	.	.	4f/	.	.	.
=80	=80	=80	=80	=80	=80	=80	=80
2B-\	.	0r	.	2g/	.	0r	.
2.A\	.	.	.	1a	.	.	.
4F\	.	.	.	.	.	.	.
2G\	.	.	.	2g/	.	.	.
=81	=81	=81	=81	=81	=81	=81	=81
1A	.	0r	.	2e/	.	0r	.
.	.	.	.	2f/	.	.	.
2G\	.	.	.	1g	.	.	.
2E\	.	.	.	.	.	.	.
=82	=82	=82	=82	=82	=82	=82	=82
2F\	.	0r	.	1c	.	0r	.
1G	.	.	.	.	.	.	.
.	.	.	.	2B/	.	.	.
2r	.	.	.	2c/	.	.	.
=83	=83	=83	=83	=83	=83	=83	=83
1C	.	0r	.	2e/	.	0r	.
.	.	.	.	1d	.	.	.
2BBni/	.	.	.	.	.	.	.
2C/	.	.	.	[2c/	.	.	.
=84	=84	=84	=84	=84	=84	=84	=84
2E\	.	0r	.	2c/]	.	0r	.
2D\	.	.	.	1d	.	.	.
1G	.	.	.	.	.	.	.
.	.	.	.	2e/	.	.	.
=85	=85	=85	=85	=85	=85	=85	=85
2F\	-ste	0r	.	1f	-lei-	0r	.
2.B-\	e-	.	.	.	.	.	.
.	.	.	.	2g/	.	.	.
8A\L	.	.	.	.	.	.	.
8B-\J	.	.	.	.	.	.	.
2A\	.	.	.	[2a/	.	.	.
=86	=86	=86	=86	=86	=86	=86	=86
2.d\	-lei-	0r	.	2a/]	.	0r	.
.	.	.	.	2b-i\	.	.	.
8c\L	.	.	.	.	.	.	.
8d\J	.	.	.	.	.	.	.
2c\	.	.	.	2.a/	.	.	.
2A\	.	.	.	.	.	.	.
.	.	.	.	4f/	.	.	.
=87	=87	=87	=87	=87	=87	=87	=87
2B-\	.	0r	.	2g/	.	0r	.
1c	.	.	.	2e/	.	.	.
.	.	.	.	1d	.	.	.
2Bni\	.	.	.	.	.	.	.
=88	=88	=88	=88	=88	=88	=88	=88
0cl	-son.	0r	.	0cl	-son.	0r	.
!!LO:LB:i:g=z
=89||	=89||	=89||	=89||	=89||	=89||	=89||	=89||
*>B	*>B	*>B	*>B	*>B	*>B	*>B	*>B
*clefF4	*	*clefGv2	*	*clefGv2	*	*clefG2	*
*k[]	*	*k[]	*	*k[]	*	*k[]	*
*M3/1	*	*M3/1	*	*M3/1	*	*M3/1	*
*met(O)	*	*met(O)	*	*met(O)	*	*met(O)	*
!!section: Kyrie II
!!!OMD: Kyrie II
!LO:TX:Z=8:t=Dux	!	!LO:TX:Z=8:t=Comes	!	!LO:TX:Z=8:t=Comes	!	!LO:TX:Z=8:t=Dux	!
[0.A	Ky-	[0.c	Ky-	0.c	Ky-	0e	Ky-
.	.	.	.	.	.	[1c	.
=90	=90	=90	=90	=90	=90	=90	=90
0.A]	.	0.c_	.	0.A	.	1c]	.
.	.	.	.	.	.	0e	-ri-
=91	=91	=91	=91	=91	=91	=91	=91
0F	.	0.c]	.	0.c	-ri-	0a	-e
[1A	.	.	.	.	.	1r	.
=92	=92	=92	=92	=92	=92	=92	=92
1A]	.	0.A	.	0.f	-e	1r	.
0D	.	.	.	.	.	0a	e-
=93	=93	=93	=93	=93	=93	=93	=93
1C	.	0.c	.	0.r	.	1e	.
2.F\	.	.	.	.	.	1f	.
4E\	-ri-	.	.	.	.	.	.
1C	-e	.	.	.	.	1g	.
=94	=94	=94	=94	=94	=94	=94	=94
1r	.	0.F	.	0.f	e-	1a	-lei-
1F	e-	.	.	.	.	2.cc\	.
.	.	.	.	.	.	4b\	.
2A\	.	.	.	.	.	1a	.
2B\	.	.	.	.	.	.	.
=95	=95	=95	=95	=95	=95	=95	=95
1c	.	1E	.	1c	.	1g	-son.
1F	.	2.A/	.	1d	.	1r	.
.	.	4G/	-ri-	.	.	.	.
1G	-lei-	1E	-e	1e	.	1g	Ky-
=96	=96	=96	=96	=96	=96	=96	=96
0.F	-son.	1r	.	1f	-lei-	2.a/	.
.	.	.	.	.	.	4b\	.
.	.	1A	e-	2.a\	.	2cc\	.
.	.	.	.	.	.	1cc	-ri-
.	.	.	.	4g\	.	.	.
.	.	2c\	.	1f	.	.	.
.	.	2d\	.	.	.	2a/	.
=97	=97	=97	=97	=97	=97	=97	=97
1r	.	1e	.	1e	-son.	2g/	.
.	.	.	.	.	.	2.cc\	.
1F	Ky-	1A	.	1r	.	.	.
.	.	.	.	.	.	4b\	.
.	.	.	.	.	.	1a	.
1E	-rie	1B	-lei-	1e	Ky-	.	.
.	.	.	.	.	.	2g#i/	.
=98	=98	=98	=98	=98	=98	=98	=98
2r	.	0.A	-son.	2.f\	.	1a	-e
1A	e-	.	.	.	.	.	.
.	.	.	.	4g\	.	.	.
.	.	.	.	2a\	.	1r	.
1F	.	.	.	1a	-ri-	.	.
.	.	.	.	.	.	2.a/	e-
2G\	.	.	.	2f\	.	.	.
.	.	.	.	.	.	4b\	.
=99	=99	=99	=99	=99	=99	=99	=99
2.A\	.	1r	.	2e\	.	0cc	-lei-
.	.	.	.	2.a\	.	.	.
4B\	.	.	.	.	.	.	.
2c\	.	1A	Ky-	.	.	.	.
.	.	.	.	4g\	.	.	.
2F\	.	.	.	1f	.	.	.
1G	.	1G	-rie	.	.	1b	-son.
.	.	.	.	2e\	.	.	.
=100	=100	=100	=100	=100	=100	=100	=100
1.F	-lei-	2r	.	1f	-e	2r	.
.	.	1c	e-	.	.	2.a/	Ky-
.	.	.	.	1r	.	.	.
.	.	.	.	.	.	4g/	.
2C/	.	1A	.	.	.	2e/	.
1D	.	.	.	2.f\	e-	1f	-ri-
.	.	2B\	.	.	.	.	.
.	.	.	.	4g\	.	.	.
=101	=101	=101	=101	=101	=101	=101	=101
2AA/	.	2.c\	.	0a	-lei-	1e	-e
2.A\	.	.	.	.	.	.	.
.	.	4d\	.	.	.	.	.
.	.	2e\	.	.	.	1r	.
4G\	.	.	.	.	.	.	.
2F\	.	2A/	.	.	.	.	.
1E	-son.	1B	.	1g	-son.	1b	e-
=102	=102	=102	=102	=102	=102	=102	=102
2r	.	1.A	-lei-	2r	.	1.cc	-lei-
1A	Ky-	.	.	2.f\	Ky-	.	.
.	.	.	.	4e\	.	.	.
2G\	.	2E/	.	2c\	.	2b\	.
2A\	.	1F	.	1d	-ri-	2.a/	.
2D\	.	.	.	.	.	.	.
.	.	.	.	.	.	4f/	.
=103	=103	=103	=103	=103	=103	=103	=103
2G\	.	2C/	.	1c	-e	2g/	.
2F\	-ri-	2.c\	.	.	.	2a/	.
2D\	-e	.	.	1r	.	2r	.
.	.	4B\	.	.	.	.	.
2F\	.	2A/	.	.	.	2.f/	.
2r	.	1G	-son.	1g	e-	.	.
.	.	.	.	.	.	4d/	.
2E\	e-	.	.	.	.	2e/	.
=104	=104	=104	=104	=104	=104	=104	=104
2F\	.	2r	.	1.a	-lei-	2A/	.
2C/	.	1c	Ky-	.	.	2e/	.
2F\	.	.	.	.	.	2f/	.
2G\	.	2B\	.	2g\	.	2d/	.
2A\	.	2c\	.	2.f\	.	2c/	.
2D\	.	2F/	.	.	.	2f/	.
.	.	.	.	4d\	.	.	.
=105	=105	=105	=105	=105	=105	=105	=105
2G\	.	2B-i\	.	2e\	.	2g/	.
2F\	.	2A/	-ri-	2f\	.	1a	.
1D	-lei-	2F/	-e	2r	.	.	.
.	.	2A/	.	2.d\	.	4g/	.
.	.	.	.	.	.	4f/	.
1E	.	2r	.	.	.	1e	.
.	.	.	.	4B\	.	.	.
.	.	2G/	e-	2c\	.	.	.
=106	=106	=106	=106	=106	=106	=106	=106
2D\	-son	2A/	.	2F/	.	2f/	.
2C/	e-	2E/	.	2c\	.	2e/	.
2F\	-lei-	2A/	.	2d\	.	2f/	.
2G\	.	2B\	.	2B\	.	2d/	.
1A	.	2c\	.	2A/	.	2c/	.
.	.	2F/	.	2d\	.	2f/	.
=107	=107	=107	=107	=107	=107	=107	=107
2G\	.	2B-i\	.	2e\	.	2g/	.
2.F\	.	2A/	.	1f	.	1a	.
.	.	1F	-lei-	.	.	.	.
4D\	.	.	.	.	.	.	.
2F\	.	.	.	4e\	.	1f	.
.	.	.	.	4d\	.	.	.
1C	.	1G	.	[1cl	-son.	.	.
.	.	.	.	.	.	2e/	.
=108	=108	=108	=108	=108	=108	=108	=108
0.Fl	-son.	0.Fl	-son.	0.c]	.	0.fl	-son.
==	==	==	==	==	==	==	==
*-	*-	*-	*-	*-	*-	*-	*-
!!!RDF**kern: l=long note in original notation
!!!RDF**kern: i=editorial accidental
!!!ENC:	Chris Gage 08-27-2012, Will Watson
!!!END:	2014/05/13/
!!!EED:	Will Watson
!!!EEV:	2014/05/14/
!!!ONB:	Translated from MusicXML and edited on 2014/05/14/ by Craig Sapp
!!muse2ps: T^@{OPR}^u^@{ONM}{. }@{OTL}^C^@{COM}^i2I150v85,85,85,130c180
